X:1
T:Title
%%score { 1 | 2 }
L:1/8
M:6/8
K:Ab
V:1 treble nm="Grand Piano"
V:2 bass 
V:1
 z3 z2[Q:1/4=90] [CE] | [Ec]2 [DB] [CA]2 [EG] | F2 A E3 | AAA AGA | c3 B2 E | %5
 [Ec]2 [DB] [CA]2 [EG] |[M:15/16] [DF]->[DF][FA][Fd]3/2- [Fd]3 |[M:3/4] cB AE FG | B3 [CA]3 | %9
 FF F[FA] [EG][DF] | [CE]3 [CA]3 | [Ec][Ec] [Ec][=Dc] [DB][DA] | c3 B2 E | [Ec]2 [DB] [CA]2 [EG] | %14
[M:15/16] [DF]->[DF][FA][Fd]3/2- [Fd]3 |[M:3/4] cB AE FG |[M:5/8] B3 [CA]2 |] %17
V:2
 z3 z2 [A,,A,] | [A,,A,]2 [A,,E,] [A,,E,]2 [C,A,] | [D,A,D]2 [F,A,D] [A,C]3 | %3
 [A,CE][A,CE][A,CE] [F,A,F][F,A,C][F,A,C] | [E,A,E]3 [E,G,E]2 [E,G,] | %5
 [A,,A,]2 [A,,E,] [A,,E,]2 [C,A,] |[M:15/16] [D,A,]->[D,A,][D,A,][D,A,]3/2- [D,A,]3 | %7
[M:3/4] [E,A,E][E,DE] [E,CE][E,G,D] [E,A,D][E,B,D] | [E,G,D]3 [A,,A,]3 | %9
 [D,A,D][D,A,D] [D,A,D][D,A,] [D,A,][D,A,] | [A,,A,]3 [A,,E,]3 | %11
 [A,,A,][A,,A,] [A,,A,][B,,A,] [B,,A,][B,,B,] | [E,A,E]3 [E,G,E]2 [E,G,] | %13
 [A,,A,]2 [A,,E,] [A,,E,]2 [C,A,] |[M:15/16] [D,A,]->[D,A,][D,A,][D,A,]3/2- [D,A,]3 | %15
[M:3/4] [E,A,E][E,DE] [E,CE][E,G,D] [E,A,D][E,B,D] |[M:5/8] [E,G,D]3 [A,,A,]2 |] %17

